icons/eye-close-fill.svg

<svg xmlns="http://www.w3.org/2000/svg" width="24" height="24" fill="none"><g clip-path="url(#a)"><g><path fill="#121212" d="M10.13 15.842L9.34203 18.782L7.41103 18.264L8.19803 15.325C7.01999 14.8905 5.92514 14.2574 4.96103 13.453L2.80803 15.607L1.39303 14.192L3.54703 12.039C2.3311 10.5828 1.51411 8.83578 1.17603 6.96902L2.07603 6.80402C4.96525 8.88719 8.43812 10.0056 12 10C15.704 10 19.131 8.81502 21.924 6.80402L22.824 6.96802C22.4864 8.83503 21.6697 10.5824 20.454 12.039L22.607 14.192L21.192 15.607L19.039 13.453C18.0749 14.2574 16.9801 14.8905 15.802 15.325L16.589 18.265L14.658 18.782L13.87 15.842C12.6324 16.0541 11.3677 16.0541 10.13 15.842Z"/></g></g><defs><clipPath id="a"><rect width="24" height="24" fill="white"/></clipPath></defs></svg>

<svg width="24" height="24" fill="none" xmlns="http://www.w3.org/2000/svg"><g clip-path="url(#a)"><path d="m10.13 15.842-.788 2.94-1.931-.518.787-2.939a10.988 10.988 0 0 1-3.237-1.872l-2.153 2.154-1.415-1.415 2.154-2.153a10.957 10.957 0 0 1-2.371-5.07l.9-.165A16.923 16.923 0 0 0 12 10c3.704 0 7.131-1.185 9.924-3.196l.9.164a10.957 10.957 0 0 1-2.37 5.071l2.153 2.153-1.415 1.415-2.153-2.154a10.987 10.987 0 0 1-3.237 1.872l.787 2.94-1.931.517-.788-2.94a11.07 11.07 0 0 1-3.74 0Z" /></g><defs><clipPath id="a"><path fill="#fff" d="M0 0h24v24H0z"/></clipPath></defs></svg>
